src/assets/outline/WalletCheck.svg

<svg width="24" height="24" viewBox="0 0 24 24"  xmlns="http://www.w3.org/2000/svg">
<path d="M5 23.75C3.34 23.75 1.78 22.87 0.939999 21.44C0.489999 20.72 0.25 19.87 0.25 19C0.25 16.38 2.38 14.25 5 14.25C7.62 14.25 9.75 16.38 9.75 19C9.75 19.87 9.51 20.72 9.06 21.45C8.22 22.87 6.66 23.75 5 23.75ZM5 15.75C3.21 15.75 1.75 17.21 1.75 19C1.75 19.59 1.91 20.17 2.22 20.67C2.81 21.67 3.85 22.25 5 22.25C6.15 22.25 7.19 21.66 7.78 20.68C8.09 20.17 8.25 19.6 8.25 19C8.25 17.21 6.79 15.75 5 15.75Z" />
<path d="M4.42988 20.7401C4.23988 20.7401 4.04988 20.6701 3.89988 20.5201L2.90988 19.5301C2.61988 19.2401 2.61988 18.76 2.90988 18.47C3.19988 18.18 3.67988 18.18 3.96988 18.47L4.44988 18.9501L6.04988 17.47C6.34988 17.19 6.82988 17.2101 7.10988 17.5101C7.38988 17.8101 7.36988 18.2901 7.06988 18.5701L4.93988 20.54C4.78988 20.67 4.60988 20.7401 4.42988 20.7401Z" />
<path d="M6.19004 7.80995C5.95004 7.80995 5.73005 7.69995 5.58005 7.49995C5.41005 7.26995 5.39005 6.96992 5.52005 6.71992C5.69005 6.37992 5.93005 6.04995 6.24005 5.74995L9.49005 2.48994C11.15 0.839941 13.85 0.839941 15.51 2.48994L17.26 4.26997C18 4.99997 18.45 5.97997 18.5 7.01997C18.51 7.24997 18.42 7.46995 18.25 7.61995C18.08 7.76995 17.85 7.83994 17.63 7.79994C17.43 7.76994 17.22 7.75996 17 7.75996H7.00005C6.76005 7.75996 6.53005 7.77995 6.30005 7.80995C6.27005 7.80995 6.23004 7.80995 6.19004 7.80995ZM7.86005 6.24995H16.82C16.69 5.90995 16.48 5.59996 16.2 5.31996L14.44 3.53993C13.37 2.47993 11.62 2.47993 10.54 3.53993L7.86005 6.24995Z" />
<path d="M17 22.75H7.62998C7.30998 22.75 7.02998 22.55 6.91998 22.26C6.80998 21.96 6.89998 21.63 7.13998 21.43C7.37998 21.23 7.59998 20.97 7.75998 20.69C8.07998 20.18 8.23998 19.6 8.23998 19.01C8.23998 17.22 6.77998 15.76 4.98998 15.76C4.05998 15.76 3.16998 16.16 2.54998 16.87C2.33998 17.1 2.00998 17.19 1.71998 17.08C1.42998 16.97 1.22998 16.69 1.22998 16.38V12C1.22998 8.92 3.12998 6.69001 6.07998 6.32001C6.34998 6.28001 6.65998 6.25 6.97998 6.25H16.98C17.22 6.25 17.53 6.26 17.85 6.31C20.8 6.65 22.73 8.89 22.73 12V17C22.75 20.44 20.44 22.75 17 22.75ZM9.17998 21.25H17C19.58 21.25 21.25 19.58 21.25 17V12C21.25 9.66 19.88 8.04998 17.66 7.78998C17.42 7.74998 17.21 7.75 17 7.75H6.99998C6.75998 7.75 6.52998 7.76999 6.29998 7.79999C4.09998 8.07999 2.74998 9.68 2.74998 12V14.82C3.42998 14.45 4.20998 14.25 4.99998 14.25C7.61998 14.25 9.74998 16.38 9.74998 19C9.74998 19.79 9.54998 20.57 9.17998 21.25Z" />
<path d="M22 17.25H19C17.48 17.25 16.25 16.02 16.25 14.5C16.25 12.98 17.48 11.75 19 11.75H22C22.41 11.75 22.75 12.09 22.75 12.5C22.75 12.91 22.41 13.25 22 13.25H19C18.31 13.25 17.75 13.81 17.75 14.5C17.75 15.19 18.31 15.75 19 15.75H22C22.41 15.75 22.75 16.09 22.75 16.5C22.75 16.91 22.41 17.25 22 17.25Z" />
</svg>

<?xml version="1.0" encoding="UTF-8"?>
<svg width="24" height="24" viewBox="0 0 24 24" xmlns="http://www.w3.org/2000/svg">
 <path d="m5 23.75c-1.66 0-3.22-0.88-4.06-2.31-0.45-0.72-0.69-1.57-0.69-2.44 0-2.62 2.13-4.75 4.75-4.75s4.75 2.13 4.75 4.75c0 0.87-0.24 1.72-0.69 2.45-0.84 1.42-2.4 2.3-4.06 2.3zm0-8c-1.79 0-3.25 1.46-3.25 3.25 0 0.59 0.16 1.17 0.47 1.67 0.59 1 1.63 1.58 2.78 1.58s2.19-0.59 2.78-1.57c0.31-0.51 0.47-1.08 0.47-1.68 0-1.79-1.46-3.25-3.25-3.25z"/>
 <path d="m4.4299 20.74c-0.19 0-0.38-0.07-0.53-0.22l-0.99-0.99c-0.29-0.29-0.29-0.7701 0-1.0601s0.77-0.29 1.06 0l0.48 0.4801 1.6-1.4801c0.3-0.28 0.78-0.2599 1.06 0.0401s0.26 0.78-0.04 1.06l-2.13 1.9699c-0.15 0.13-0.33 0.2001-0.51 0.2001z"/>
 <path d="m6.19 7.81c-0.24 0-0.45999-0.11-0.60999-0.31-0.17-0.23-0.19-0.53003-0.06-0.78003 0.17-0.34 0.41-0.66997 0.72-0.96997l3.25-3.26c1.66-1.65 4.36-1.65 6.02 0l1.75 1.78c0.74 0.73 1.19 1.71 1.24 2.75 0.01 0.23-0.08 0.44998-0.25 0.59998s-0.4 0.21999-0.62 0.17999c-0.2-0.03-0.41-0.03998-0.63-0.03998h-10c-0.24 0-0.47 0.01999-0.7 0.04999h-0.11001zm1.67-1.56h8.96c-0.13-0.34-0.34-0.64999-0.62-0.92999l-1.76-1.78c-1.07-1.06-2.82-1.06-3.9 0l-2.68 2.71z"/>
 <path d="m17 22.75h-9.37c-0.32 0-0.6-0.2-0.71-0.49-0.11-0.3-0.02-0.63 0.22-0.83s0.46-0.46 0.62-0.74c0.32-0.51 0.48-1.09 0.48-1.68 0-1.79-1.46-3.25-3.25-3.25-0.93 0-1.82 0.4-2.44 1.11-0.21 0.23-0.54 0.32-0.83 0.21s-0.49-0.39-0.49-0.7v-4.38c0-3.08 1.9-5.31 4.85-5.68 0.27-0.04 0.58-0.07001 0.9-0.07001h10c0.24 0 0.55 0.01 0.87 0.06 2.95 0.34 4.88 2.58 4.88 5.69v5c0.02 3.44-2.29 5.75-5.73 5.75zm-7.82-1.5h7.82c2.58 0 4.25-1.67 4.25-4.25v-5c0-2.34-1.37-3.95-3.59-4.21-0.24-0.04-0.45-0.03998-0.66-0.03998h-10c-0.24 0-0.47 0.01999-0.7 0.04999-2.2 0.28-3.55 1.88-3.55 4.2v2.82c0.68-0.37 1.46-0.57 2.25-0.57 2.62 0 4.75 2.13 4.75 4.75 0 0.79-0.2 1.57-0.57 2.25z"/>
 <path d="m22 17.25h-3c-1.52 0-2.75-1.23-2.75-2.75s1.23-2.75 2.75-2.75h3c0.41 0 0.75 0.34 0.75 0.75s-0.34 0.75-0.75 0.75h-3c-0.69 0-1.25 0.56-1.25 1.25s0.56 1.25 1.25 1.25h3c0.41 0 0.75 0.34 0.75 0.75s-0.34 0.75-0.75 0.75z"/>
</svg>
